X:45
T:Sicilian Mariners Hymn, The
S:John Moore's Book 3
Z:Transcribed by Edmund Spriggs 05/2021
%%VWML: Moore1-4495-p36-0
F:https://www.vwml.org/record/Moore3/4495/p36
M:2/4
L:1/8
K:G
d2e2|d>cBc|d2e2|d>cBc|
d2d2|e2ef|f2!trill!e2{de}|{e2}d4:|
|:A>BAB|c>dc2|B>cBc|d>ed2|
(gf)ed|(ge)dc|B2!trill!A2{GA}|G4:|

